X:34
T:Stepney Long Room. ThoH.034
Q:1/2=80
M:C|
L:1/8
B:Thompson's Compleat Collection of 120 Favourite Hornpipes.
Z:Village Music Project, Simon Wilson 2016
O:England.
K:Bb
F2|B4B,2d2|cBAG FEDC|B,DFA Bdfb|gedc Bcde|fBAB GFTED|EGc4TB2|
{B}A2GF BGF=E|{G}F6:||:AB|c4C2f2|edcB AGFE|DEFG ABcd|BAG^F GABc|
d4ecBA|dBAG ^FAce|d^fgB Agfa|g6(ga/b/)|fdef dBAB|GFED EGBd|
ecAF dBGE|cAFD CDFA|B4dcBA|Bcde fgab|fgfe dcBA|B6:|

